!!!id: EG071
!!!page: 190-192
!!!COM: Anonymous
!!!LYR: Anonymous
!!!PTL@@FR: Chansons Populaires du Canada
!!!OTL@@FR: Je n'ai pas de barde au menton, mais il m'en vient
!!!PUB: G. E. Desbarats
!!!YEM:
!!!PDT: 1865
!!!SMA:
!!!OMD:
!!!AGN-Laforte:
!!!AGN-type:
!!!AGN-rime:
**kern
*clefG2
*k[]
*C:
*M3/8
*
*
=1
8cc
8cc
8cc
=2
4cc
8cc
=3
8b-qq
4a
8b/
=4
4.cc
=5
8cc
8cc
8cc
!!LO:PB:g=original
=6
4cc
8cc
=7
8b-qq
4a
8b/
=8
4.cc
=9
8cc
8cc
8cc
=10
4cc
8dd
=11
4cc
8a
!!LO:PB:g=original
=12
8.a
16g
8f
=13
4a
8a
=14
8.a
16g
8f
=15
4a
8a
=16
4.a
!!LO:PB:g=original
=17
8.cc
16b
8cc
=18
4a
!LO:TX:a:t=2
.
4cc
=19
4b/
8b/
=20
4.g
=21
8b/
8a
8b/
=22
4g
8r
==||
*
*
==|
!!!RNB: Key is probably just C Major with modal mixture, but seems a bit ambiguous, especially ending on G
!!!RNB: Unclear whether the B-flat from the grace notes is intended to make flat all subsequent B's in the respective measure (left those B's as natural for now)
!!!RWG: Tuplet in m.18 probably encoded incorrectly
*-
